assets/images/icons/src/database.svg

<?xml version="1.0" encoding="utf-8"?>
<!-- Generated by IcoMoon.io -->
<!DOCTYPE svg PUBLIC "-//W3C//DTD SVG 1.1//EN" "http://www.w3.org/Graphics/SVG/1.1/DTD/svg11.dtd">
<svg version="1.1" xmlns="http://www.w3.org/2000/svg" xmlns:xlink="http://www.w3.org/1999/xlink" width="12" height="14" viewBox="0 0 12 14">
<path fill="#444444" d="M6 6q1.852 0 3.461-0.336t2.539-0.992v1.328q0 0.539-0.805 1t-2.188 0.73-3.008 0.27-3.008-0.27-2.188-0.73-0.805-1v-1.328q0.93 0.656 2.539 0.992t3.461 0.336zM6 12q1.852 0 3.461-0.336t2.539-0.992v1.328q0 0.539-0.805 1t-2.188 0.73-3.008 0.27-3.008-0.27-2.188-0.73-0.805-1v-1.328q0.93 0.656 2.539 0.992t3.461 0.336zM6 9q1.852 0 3.461-0.336t2.539-0.992v1.328q0 0.539-0.805 1t-2.188 0.73-3.008 0.27-3.008-0.27-2.188-0.73-0.805-1v-1.328q0.93 0.656 2.539 0.992t3.461 0.336zM6 0q1.625 0 3.008 0.27t2.188 0.73 0.805 1v1q0 0.539-0.805 1t-2.188 0.73-3.008 0.27-3.008-0.27-2.188-0.73-0.805-1v-1q0-0.539 0.805-1t2.188-0.73 3.008-0.27z"></path>
</svg>

<svg xmlns="http://www.w3.org/2000/svg" width="12" height="14" viewBox="0 0 12 14"><path fill="#444" d="M6 6q1.852 0 3.461-.336T12 4.672V6q0 .539-.805 1t-2.188.73T5.999 8t-3.008-.27T.803 7t-.805-1V4.672q.93.656 2.539.992T5.998 6zm0 6q1.852 0 3.461-.336T12 10.672V12q0 .539-.805 1t-2.188.73-3.008.27-3.008-.27T.803 13t-.805-1v-1.328q.93.656 2.539.992T5.998 12zm0-3q1.852 0 3.461-.336T12 7.672V9q0 .539-.805 1t-2.188.73-3.008.27-3.008-.27T.803 10t-.805-1V7.672q.93.656 2.539.992T5.998 9zm0-9q1.625 0 3.008.27t2.188.73.805 1v1q0 .539-.805 1t-2.188.73T6 5t-3.008-.27T.804 4t-.805-1V2q0-.539.805-1T2.992.27 6 0z"/></svg>
